[[1,1],[9,8],[5,4],[4,3],[3,2],[5,3],[15,8],[2,1]].gradusSuavitatis;
numberExtras

a = (1..230).collect{|x| x.indigestibility.postln}.plot;
a.postln;
(2.indigestibility - 3.indigestibility).sign

(3.indigestibility - 2.indigestibility).sign;


[[1,1],[2,1],[3,1],[8,1],[3,2]].harmonicity;

1/(2.indigestibility - 3.indigestibility);



-1/(3.indigestibility + 2.indigestibility);
